X:1033
T:Chanson Russ\'e
O:england
C:Ludwig van Beethoven
%http://www.musicaviva.com/beethoven-ludwig-van.abc
V:1 Program 1 0 %Piano
V:2 Program 1 0 bass %Piano
M:2/4
L:1/8
K:G
V:1
Bddd|Bddd|ecAc|cBB2|
V:2
G,2F,2|G,2B,,2|C,2D,2|G,,2D,2|
%
V:1
Bddd|Bddd|ecAF|AGG2:|
V:2
G,2F,2|G,2B,,2|C,2D,2|G,,4:|
%
V:1
|:g2g>f|fee2|dedc|cBB2|
V:2
|:B,,2G,,2|C,2A,,2|D,2F,2|G,2D,2|
%
V:1
g2g>f|fee2|ddef|a>gg2:|
V:2
B,,2G,,2|C,2A,,2|D,2D,,2|G,,4:|


